X:1
T:Red Rosy Bush
M:4/4
L:1/4
K:Bb
 z2 F- B| B3- c| B3 c| A2 c A| F3 B| B3 c| d- c d- e| f3 z| z2 d- e|\
 f2 g2| f2 d c| d- c d2| F2 B2| d2 B2| f- d c- A| B4|
